X: 500
T: Bülbülün Çilesi Yanmakmış Güle
C: Yusuf Nalkesen
O: Turkey
F: http://compmusic.upf.edu/node/140
N: hicaz--sarki--semai--bulbulun_cilesi--yusuf_nalkesen
N: makam= hicaz
N: form= sarki
N: usul= semai = 3/4
M: 3/4
L: 1/16
K: C _7/8B ^f ^c 
Q: 1/4=144
%%MIDI tuningsystem comma53
A4 d4 a4  | g4 =f4 e2d2  | a4 .a2.a2 .a2.a2  | \
w:  ARANAĞME  |   |   | 
a4 a4 a4  | g2a2 g4 a4  | d4 e4 f4  | 
w:   |   |   | 
g3f g2_b2 a2g2  | =f2e2 d2c2 d4  | _b4 a4 g4  | \
w:   |   |   | 
=f4 e4 d4  | c12  | e2d2 c2B2 A4  | 
w:   |   |   | 
d2e2 d4 e4  | c4 B4 B2A2  | A12  | A12  | _b4 a4 g4  | \
w:   |   |   |   |   | 
=f4 e4 d4  | c12  | e2d2 c2B2 A4  | 
w:   |   |   | 
d2e2 d4 e4  | c4 B4 B2A2  | A12  | A12  | G2A2 G4 A4  | A12  | \
w:   |   |   |   |  Bül *  *  bü  |  lün   | 
G4 A4 B2A2  | A12  | d8 c4  | 
w:  çi le  |  si   |  yan mak  | 
d2c2 =B4 c4  | d12  | d8 z4  | d4 e8  | e8 d4  | \
w:  mış  *  *  gü  |  le    |   |  Ö mür  |  ler   | 
d4 f4 a4  | g2f2 e2d2 e4  | a2g2 a4 g2f2  | 
w:  ge çi  |  yor   |  ağ *  *  la  | 
f2e2 f4 e2d2  | d12  | d12  | a2a2 g2=f2 e2d2  | \
w:  ya  *  *  gü  |  le    |   |  SAZ  | 
c2B2 A2G2 A4  | G2A2 G4 A4  | 
w:   |  Bül *  *  bü  | 
A12  | G4 A4 B2A2  | A12  | d8 c4  | d2c2 =B4 c4  | d12  | \
w:  lün   |  çi le  |  si   |  yan mak  |  mış  *  *  gü  |  le    | 
d8 z4  | d4 e8  | e8 d4  | d4 f4 a4  | 
w:   |  Ö mür  |  ler   |  ge çi  | 
g2f2 e2d2 e4  | a2g2 a4 g2f2  | f2e2 f4 e2d2  | d12  | d12  | \
w:  yor   |  ağ *  *  la  |  ya  *  *  gü  |  le    |   | 
a2a2 g2=f2 e2d2  | 
w:  SAZ  | 
e2d2 c2d2 e4  | d8 f4  | a4 g4 f4  | e2f2 e4 f4  | \
w:   |  Yol cu  |  yuz   |  cüm *  *  le  | 
g4 f4 e4  | d2e2 d4 a4  | 
w:  miz   |  hep  *  *  o   | 
g4 f4 e4  | d3c B2A2 B2c2  | B12  | A4 d4 a4  | \
w:  meç *  hû  |  le    |   |  İ çe lim   | 
g4 f4 e2d2  | a12  | a12  | g2a2 g4 a4  | 
w:  a  dost  |  lar   |   |  neş *  *  e   | 
d4 e4 f4  | g3f g2_b2 a2g2  | =f3e d2c2 d4  | \
w:  do la  |  lım    |   | 
_b4 a4 g4  | f4 e4 d4  | c12  | 
w:  İ çe lim   |  bu  ak  |  şam   | 
e2d2 c2B2 A4  | d2e2 d4 e4  | c4 B4 B2A2  | A12  | A12  | \
w:   |  ser *  *  mest   |  o la  |  lım    |   | 
A4 d4 a4  | g4 =f4 e2d2  | 
w:  ARANAĞME  |   | 
a4 .a2.a2 .a2.a2  | a4 a4 a4  | g2a2 g4 a4  | \
w:   |   |   | 
d4 e4 f4  | g3f g2_b2 a2g2  | 
w:   |   | 
=f2e2 d2c2 d4  | _b4 a4 g4  | =f4 e4 d4  | c12  | \
w:   |   |   |   | 
e2d2 c2B2 A4  | d2e2 d4 e4  | 
w:   |   | 
c4 B4 B2A2  | A12  | A12  | _b4 a4 g4  | =f4 e4 d4  | c12  | \
w:   |   |   |   |   |   | 
e2d2 c2B2 A4  | d2e2 d4 e4  | 
w:   |   | 
c4 B4 B2A2  | A12  | A12  | G2A2 G4 A4  | A12  | \
w:   |   |   |  Bül *  *  bü  |  lün   | 
G4 A4 B2A2  | A12  | d8 c4  | d2c2 =B4 c4  | 
w:  çi le  |  si   |  yan mak  |  mış  *  *  gü  | 
d12  | d8 z4  | d4 e8  | e8 d4  | d4 f4 a4  | \
w:  le    |   |  Ö mür  |  ler   |  ge çi  | 
g2f2 e2d2 e4  | a2g2 a4 g2f2  | f2e2 f4 e2d2  | 
w:  yor   |  ağ *  *  la  |  ya  *  *  gü  | 
d12  | d12  | a2a2 g2=f2 e2d2  | c2B2 A2G2 A4  | \
w:  le    |   |  SAZ  |   | 
G2A2 G4 A4  | A12  | G4 A4 B2A2  | 
w:  Bül *  *  bü  |  lün   |  çi le  | 
A12  | d8 c4  | d2c2 =B4 c4  | d12  | d8 z4  | \
w:  si   |  yan mak  |  mış  *  *  gü  |  le    |   | 
d4 e8  | e8 d4  | d4 f4 a4  | g2f2 e2d2 e4  | 
w:  Ö mür  |  ler   |  ge çi  |  yor   | 
a2g2 a4 g2f2  | f2e2 f4 e2d2  | d12  | d12  | \
w:  ağ *  *  la  |  ya  *  *  gü  |  le    |   | 
a2a2 g2=f2 e2d2  | e2d2 c2d2 e4  | 
w:  SAZ  |   | 
d8 f4  | a4 g4 f4  | e2f2 e4 f4  | g4 f4 e4  | \
w:  Yol cu  |  yuz   |  cüm *  *  le  |  miz   | 
d2e2 d4 a4  | g4 f4 e4  | d3c B2A2 B2c2  | 
w:  hep  *  *  o   |  meç *  hû  |  le    | 
B12  | A4 d4 a4  | g4 f4 e2d2  | a12  | a12  | \
w:   |  İ çe lim   |  a  dost  |  lar   |   | 
g2a2 g4 a4  | d4 e4 f4  | g3f g2_b2 a2g2  | 
w:  neş *  *  e   |  do la  |  lım    | 
=f3e d2c2 d4  | _b4 a4 g4  | f4 e4 d4  | c12  | \
w:   |  İ çe lim   |  bu  ak  |  şam   | 
e2d2 c2B2 A4  | d2e2 d4 e4  | 
w:   |  ser *  *  mest   | 
c4 B4 B2A2  | A12  | A12  | |


